X:51
T:Vanhall's Minuet
N:page 29 on manuscript
M:2/4
L:1/8
K:C
G | c>dc>d | BGGG | c>dc>e | g3 e | (af)fd | (ge)ec | (de)fd | cBAG | c>dc>d | BGGG |
c>dc>e | g3 e | (af)fd | (ge)ec | (fd)dB | c3 || g>ag>a | (fd)de | f>gf>g | (ec)cd | .G(c/d/) ec |
.G(d/e/) fd | (ge)dc | (cB)AG | c>dc>d | (BG)GG | c>de>f | g3 e | (af)fd | (ge)ec | (fd)cB | c3 ||
M:3/4
G2 | c4 ed | (dc) c2 G2 | d4 fe | (ed) d2 ef | g3 (f/e/) (d/c/)(B/A/) | G2 f2 e2 | {e}d2 c2 B2 |
{B}c4 :||: ef | g2 e2 c2 | Bd f4 | (e/g/)(a/g/) (a/g/)(a/g/) (f/e/)(d/c/) | (B/c/d/e/) f4 | (3efg (3agf (3edc | (c2 B2) G2 |
c4 ed | (dc) c2 G2 | d4 fe | (ed) d2 ef | g3 (f/e/) (d/c/)(B/A/) | G2 f2 e2 | {e}d2 c2 B2 | {B}c4 :|
M:2/4
K:F
|:C/F// | AAGG | F2 CE/A/ | .c.c.d.d | G3 C/>G/ | .B.B.A.A | (G2 D) B/>G/ | .F.F.G.G | (G2 A ) :||
C/>A/ | .c.c.B.B | (A2 D) c/>A/ | .B.B.d.d | (F2 E) C/>G/ | .B.B.G.G | (c>f) a c/>A/ | .G.G.E.E | F3 :|

